svg/set/WOT/T.svg

<?xml version="1.0" encoding="UTF-8"?>
<svg id="Layer_2" data-name="Layer 2" xmlns="http://www.w3.org/2000/svg" xmlns:xlink="http://www.w3.org/1999/xlink" viewBox="0 0 896.88 896.34">
  <defs>
    <style>
      .cls-1, .cls-2 {
        fill-rule: evenodd;
        stroke-width: 0px;
      }

      .cls-2 {
        fill: url(#linear-gradient);
      }
    </style>
    <linearGradient id="linear-gradient" x1="-506.82" y1="966.26" x2="-505.82" y2="966.26" gradientTransform="translate(504581.02 966355.16) scale(995.68 -999.64)" gradientUnits="userSpaceOnUse">
      <stop offset="0" stop-color="#612c75"/>
      <stop offset=".07" stop-color="#744284"/>
      <stop offset=".19" stop-color="#94679f"/>
      <stop offset=".31" stop-color="#ab82b3"/>
      <stop offset=".42" stop-color="#ba93be"/>
      <stop offset=".5" stop-color="#bf99c3"/>
      <stop offset=".58" stop-color="#ba93be"/>
      <stop offset=".69" stop-color="#ab82b3"/>
      <stop offset=".81" stop-color="#94679f"/>
      <stop offset=".93" stop-color="#744284"/>
      <stop offset="1" stop-color="#612c75"/>
    </linearGradient>
  </defs>
  <g id="Layer_1-2" data-name="Layer 1">
    <g id="Mythic1">
      <path class="cls-1" d="M500.92,197.4c-7.18-9.19-15.28-18.35-24.37-27.46-78.43-78.42-334.9-84.22-334.9-84.22,23.41-20.7,51.14-33.13,96.7-50.12,151.24-56.44,301.21-45.01,400.14,28.81,24.1,18,45.34,39.67,62.95,65.05l60.31,25.64c84.32,35.87,121.38,110.6,131.87,189.02,9.86,73.78-4.25,150.26-20.58,194.88-2.27,6.2-4.64,12.26-7.14,18.2l3.06,4.79c13.26,20.72,17.82,46.7,14.83,73.43-4.02,35.96-21.86,73.06-45.02,96.86-94.6,97.19-277.85,181.36-464.3,160.97C227.53,877.2,13.09,780.35,3.76,528.67l-3.76-101.27,57.98,83.12c54.16,77.63,97.54,95.44,158.8,95.44,161,0,231.23-156.36,254.99-227.32,14.45-43.14,15.9-105.2-3.29-136.44-19.19-31.25-39.54-44.99-39.54-44.99,23.29-9.05,47.34-8.17,71.98.18h0ZM242.17,160.52c28.86,64.78,68.59,121.19,121.88,167.17l25.87,22.31-25.62,22.61c-50.58,44.6-91.8,97.73-121.64,161.18l-27.01,57.46-26.94-57.49c-30.19-64.42-73.85-116.41-128.34-158.4l-31.68-24.41,32.45-23.38c54.05-38.94,96.32-94.03,126.28-166.33l26.54-64.06,28.21,63.34h0Z"/>
      <path class="cls-2" d="M214.94,172.66c30.67,68.84,73,128.74,129.65,177.6-53.6,47.28-97.27,103.6-128.89,170.87-32.27-68.87-78.89-124.49-137.14-169.37,58.26-41.98,104.1-101.16,136.38-179.1h0ZM248.76,63.52c234.18-87.37,465.5-5.2,478.48,241.64,0,212.82-132.02,344.16-359.46,391.92,193.04-17.27,351.05-124.63,411.16-312.58,20.72-64.76,18.6-138.3-28.85-201.96,147.07,62.54,125.26,263.51,94.97,346.22-45.54,124.4-141.95,191.64-226.01,226.02,126.08-9.14,207.53-107.56,224.81-176.72,24.35,38.06,5.18,100.94-26.45,133.44-89.56,92.03-263.16,171.44-439.7,152.14-135.94-14.86-335.52-103.24-344.16-336.07,62.2,89.17,112.87,108.2,183.24,108.2,177.32,0,257.08-169.51,283.25-247.66,16.55-49.42,20.18-92.24-3.61-156.29,43.14,34.09,60.72,78.12,68.53,162.3,24.61-73.68,16.02-161.9-67.33-245.26-64.37-64.37-157.85-87.77-248.86-85.36h0Z"/>
    </g>
  </g>
</svg>

<?xml version="1.0" encoding="UTF-8" standalone="no"?>
<svg
   id="Layer_2"
   data-name="Layer 2"
   viewBox="0 0 896.88403 896.32834"
   version="1.1"
   width="896.88403"
   height="896.32837"
   xmlns="http://www.w3.org/2000/svg"
   xmlns:svg="http://www.w3.org/2000/svg">
  <defs
     id="defs11">
    <style
       id="style1">
      .cls-1, .cls-2 {
        fill-rule: evenodd;
        stroke-width: 0px;
      }

      .cls-2 {
        fill: url(#linear-gradient);
      }
    </style>
    <linearGradient
       id="linear-gradient"
       x1="-506.82001"
       y1="966.26001"
       x2="-505.82001"
       y2="966.26001"
       gradientTransform="matrix(995.68,0,0,-999.64,504581.02,966355.16)"
       gradientUnits="userSpaceOnUse">
      <stop
         offset="0"
         stop-color="#612c75"
         id="stop1" />
      <stop
         offset=".07"
         stop-color="#744284"
         id="stop2" />
      <stop
         offset=".19"
         stop-color="#94679f"
         id="stop3" />
      <stop
         offset=".31"
         stop-color="#ab82b3"
         id="stop4" />
      <stop
         offset=".42"
         stop-color="#ba93be"
         id="stop5" />
      <stop
         offset=".5"
         stop-color="#bf99c3"
         id="stop6" />
      <stop
         offset=".58"
         stop-color="#ba93be"
         id="stop7" />
      <stop
         offset=".69"
         stop-color="#ab82b3"
         id="stop8" />
      <stop
         offset=".81"
         stop-color="#94679f"
         id="stop9" />
      <stop
         offset=".93"
         stop-color="#744284"
         id="stop10" />
      <stop
         offset="1"
         stop-color="#612c75"
         id="stop11" />
    </linearGradient>
  </defs>
  <g
     id="Layer_1-2"
     data-name="Layer 1"
     transform="translate(0,0.00539096)">
    <g
       id="Mythic1">
      <path
         class="cls-1"
         d="m 500.92,197.4 c -7.18,-9.19 -15.28,-18.35 -24.37,-27.46 -78.43,-78.42 -334.9,-84.22 -334.9,-84.22 23.41,-20.7 51.14,-33.13 96.7,-50.12 151.24,-56.44 301.21,-45.01 400.14,28.81 24.1,18 45.34,39.67 62.95,65.05 l 60.31,25.64 c 84.32,35.87 121.38,110.6 131.87,189.02 9.86,73.78 -4.25,150.26 -20.58,194.88 -2.27,6.2 -4.64,12.26 -7.14,18.2 l 3.06,4.79 c 13.26,20.72 17.82,46.7 14.83,73.43 -4.02,35.96 -21.86,73.06 -45.02,96.86 -94.6,97.19 -277.85,181.36 -464.3,160.97 C 227.53,877.2 13.09,780.35 3.76,528.67 L 0,427.4 57.98,510.52 c 54.16,77.63 97.54,95.44 158.8,95.44 161,0 231.23,-156.36 254.99,-227.32 14.45,-43.14 15.9,-105.2 -3.29,-136.44 -19.19,-31.25 -39.54,-44.99 -39.54,-44.99 23.29,-9.05 47.34,-8.17 71.98,0.18 v 0 z M 242.17,160.52 c 28.86,64.78 68.59,121.19 121.88,167.17 L 389.92,350 364.3,372.61 c -50.58,44.6 -91.8,97.73 -121.64,161.18 l -27.01,57.46 -26.94,-57.49 C 158.52,469.34 114.86,417.35 60.37,375.36 L 28.69,350.95 61.14,327.57 c 54.05,-38.94 96.32,-94.03 126.28,-166.33 l 26.54,-64.06 z"
         id="path11" />
      <path
         class="cls-2"
         d="m 214.94,172.66 c 30.67,68.84 73,128.74 129.65,177.6 -53.6,47.28 -97.27,103.6 -128.89,170.87 C 183.43,452.26 136.81,396.64 78.56,351.76 136.82,309.78 182.66,250.6 214.94,172.66 Z M 248.76,63.52 c 234.18,-87.37 465.5,-5.2 478.48,241.64 0,212.82 -132.02,344.16 -359.46,391.92 C 560.82,679.81 718.83,572.45 778.94,384.5 799.66,319.74 797.54,246.2 750.09,182.54 897.16,245.08 875.35,446.05 845.06,528.76 799.52,653.16 703.11,720.4 619.05,754.78 745.13,745.64 826.58,647.22 843.86,578.06 868.21,616.12 849.04,679 817.41,711.5 727.85,803.53 554.25,882.94 377.71,863.64 241.77,848.78 42.19,760.4 33.55,527.57 c 62.2,89.17 112.87,108.2 183.24,108.2 177.32,0 257.08,-169.51 283.25,-247.66 16.55,-49.42 20.18,-92.24 -3.61,-156.29 43.14,34.09 60.72,78.12 68.53,162.3 24.61,-73.68 16.02,-161.9 -67.33,-245.26 C 433.26,84.49 339.78,61.09 248.77,63.5 v 0 z"
         id="path12"
         style="fill:url(#linear-gradient)" />
    </g>
  </g>
</svg>
